!!!OTL: "Der Rattenfaenger von Hameln" KOMMT DAHER EIN WUNDERMANN
!!!ARE: Europa, Mitteleuropa, Deutschland, Westerwald
!!!SCT: Z1044
!!!YEM: Copyright 1995, estate of Helmut Schaffrath.
**kern
*ICvox
*Ivox
*M2/4
*k[f#]
*G:
{8g
8g
8f#
8g
=1
8a
16b
16a
4g}
=2
{8a
8a
8b
8dd
=3
8cc
8b
4a}
=4
{8b
8a
8g
8g
=5
8cc
8ee
4dd}
=6
{8cc
8a
8b
8g
=7
16b
16a
8a
4g}
=8
{8.b
16a
8g
8g
=9
8cc
8ee
4dd}
=10
{8cc
8a
8b
8g
=11
16b
16a
8a
4g}
==
!!!AGN: Romanze, Ballade, Tod
!!!ONB: ESAC (Essen Associative Code) Database: ZUCCAL
!!!AMT: simple duple
!!!AIN: vox
!!!EED: Helmut Schaffrath
!!!EEV: 1.0
*-
